svgs/light/ring.svg

<svg xmlns="http://www.w3.org/2000/svg" viewBox="0 0 512 512"><!-- Font Awesome Pro 5.15.3 by @fontawesome - https://fontawesome.com License - https://fontawesome.com/license (Commercial License) --><path d="M256 64C87.93 64 0 128.39 0 192v114.13C0 384.48 114.62 448 256 448s256-63.52 256-141.87V192c0-63.61-87.93-128-256-128zm224 242.13C480 358.1 388.01 416 256 416S32 358.1 32 306.13v-50.12C71.33 292.63 146.55 320 256 320s184.67-27.37 224-63.99v50.12zM89.32 255.97C130.3 236.37 189.74 224 256 224s125.7 12.37 166.68 31.97C381.67 275.59 322.29 288 256 288s-125.67-12.41-166.68-32.03zm364.88-19.31C411.3 210.2 345.06 192 256 192s-155.3 18.2-198.2 44.66C41.39 223.32 32 208.14 32 192c0-53.02 100.29-96 224-96s224 42.98 224 96c0 16.14-9.39 31.32-25.8 44.66z"/></svg>

<svg xmlns="http://www.w3.org/2000/svg" viewBox="0 0 512 512"><!--! Font Awesome Pro 6.0.0-alpha3 by @fontawesome - https://fontawesome.com License - https://fontawesome.com/license (Commercial License) --><path d="M256 64C87.88 64 0 128.4 0 192v114.1C0 384.5 114.6 448 256 448s256-63.5 256-141.9V192C512 128.4 424.1 64 256 64zM480 306.1C480 358.1 388 416 256 416s-224-57.88-224-109.9V256c39.38 36.63 114.5 64 224 64s184.6-27.38 224-64V306.1zM89.38 256C130.2 236.4 189.8 224 256 224s125.8 12.38 166.6 32C381.6 275.6 322.2 288 256 288S130.4 275.6 89.38 256zM454.3 236.6C411.2 210.2 345 192 256 192S100.8 210.2 57.75 236.6C41.38 223.4 32 208.1 32 192c0-53 100.2-96 224-96s224 43 224 96C480 208.1 470.6 223.4 454.3 236.6z"/></svg>
